icons/shield-check.svg

<svg width="24" height="24" viewBox="0 0 24 24" fill="none" xmlns="http://www.w3.org/2000/svg">
<path d="M20 5.47155V7.35146C20 13.4086 16.752 17.8953 12.462 21.8212C12.2016 22.0596 11.7983 22.0596 11.5379 21.8212C7.2128 17.8631 4.00002 13.365 4.00002 7.35149V5.47155C3.99884 5.32854 4.05158 5.19017 4.14805 5.08319C4.24452 4.97622 4.37786 4.90824 4.5223 4.89238C6.81069 4.66174 9.00391 3.87069 10.9017 2.59145L11.5989 2.1225C11.7169 2.04271 11.8568 2 12 2C12.1432 2 12.2831 2.04271 12.4011 2.1225L13.0983 2.59145C14.9961 3.87069 17.1893 4.66174 19.4777 4.89238C19.6221 4.90824 19.7555 4.97622 19.852 5.08319C19.9484 5.19017 20.0012 5.32854 20 5.47155Z" stroke="black" stroke-width="2" stroke-linecap="round" stroke-linejoin="round"/>
<path d="M9 11.7857L10.875 13.5C10.875 13.5 13.1636 10.2995 15 9.5" stroke="black" stroke-width="2" stroke-linecap="round" stroke-linejoin="round"/>
</svg>

<svg xmlns="http://www.w3.org/2000/svg" width="24" height="24" viewBox="0 0 24 24" fill="none" stroke="currentColor" stroke-width="2" stroke-linecap="round" stroke-linejoin="round">
<path d="M20 5.472v1.88c0 6.057-3.248 10.543-7.538 14.47a.686.686 0 0 1-.924 0C7.213 17.862 4 13.364 4 7.351v-1.88a.57.57 0 0 1 .148-.389.6.6 0 0 1 .374-.19 13.9 13.9 0 0 0 6.38-2.302l.697-.469a.72.72 0 0 1 .802 0l.697.47a13.9 13.9 0 0 0 6.38 2.3.6.6 0 0 1 .374.191c.096.107.15.246.148.389"/><path d="m9 11.786 1.875 1.714s2.289-3.2 4.125-4"/>
</svg>
